X: 845
T: Gitti de Gelmeyiverdi
C: Dede Efendi
O: Turkey
F: http://compmusic.upf.edu/node/140
N: ussak--sarki--aksak--gitti_de--dede_efendi
N: makam= ussak
N: form= sarki
N: usul= aksak = 9/8
M: 9/8
L: 1/16
K: C _2/4B   
Q: 1/4=192
%%MIDI tuningsystem comma53
z4 ^3/4F2G2 A4 d4 B2 | c3BBA AGA4d4B2  | \
w:   |   | 
c3B BAAG A2B2 cdcB BA | 
w:   | 
AG ^3/4FEDE FGA4d4B2  | c3B BAAG A4 d4 B2 | \
w:   |   | 
c3BBA AGA2 B2cd cBBA  | 
w:   | 
A4 Ag^3/4fg e3d efgf ga | e3ddg ^3/4fae3def gfga  | 
w:   |   | 
e3d e^3/4fga g=fed cdcB BA | A4Ag ^3/4fge3def gfga  | 
w:   |   | 
e3d dg^3/4fa e3d efgf ga | e3de^3/4f gag=f edcd cBBA  | 
w:   |   | 
A4 ^3/4F2G2 A4 d4 B2 | c3BBA AGA4d4B2  | \
w:   |   | 
c3B BAAG A2B2 c2{d}cB BA | 
w:   | 
AG ^3/4FEDE FGA4d4B2  | c3B BAAG A4 d4 B2 | \
w:   |   | 
c3BBA AGA2 B2cd cBBA  | 
w:   | 
A6c2 B2c2 A6 | G4^3/4F2 G2A8B2  | z2G4d2 c2B2 dcB2 BA | \
w:   |  *  Git ti  de   |  gel me yi *  ver  | 
A4A2 c2B2 A2G4A2  | 
w:  di    | 
G4 ^3/4F2G2 A8 B2 | z2 G4 d2c2 B2dc B2BA  | \
w:  *  Git ti  de   |  gel me yi *  ver  | 
A6ef edcd e3d cd | 
w:  di   SAZ  | 
e4c2 d2e8d2  | efg2 fed2 d4 c2BA G2 | \
w:  *  Göz le rim   |  yol *  *  lar *  *  da  kal  | 
d6 efed cde3dcd  | 
w:  dı   SAZ  | 
e4 c2d2 e8 d2 | z2 efg2 feed dcd4ce  | \
w:  *  He le  naz lım   |  ner *  *  de  *  kal *  *  *  dı   SAZ  | 
d4 d2d2 {e}d4 c4 BA | 
w:  *  Ne  za *  man   | 
B2 z2A2 B2d4c4BA  | B2z2 e2{e}d2 c3B B4 A2 | \
w:  *  ne  za man    |  *  Ne  *  za man  *  *  ge  | 
A4A2 c2B2 A2G4A2  | 
w:  lir    | 
.G4 ^3/4F2G2 A4 A6 | A2 A4 c2B2 A2G4A2  | \
w:  *  Gel_ a  naz lım   |  la hû ri  şal *  lım    | 
.G4 A2B2 c2d2 e2fe ed | 
w:  *  Sa ğı  so *  lu   | 
dc cBd2 d2c2 B2A4G2  | d18 | .d4d2 d2{e}d4c4BA  | \
w:  *  *  *  *  do la şa *  lım_ a  |  man    |  *  Ne  za *  man   | 
B2z2 A2B2 d4 c4 BA | 
w:  *  ne  za man    | 
B2 z2e2 d2c3BB4A2  | A6c2 B2c2 A4 z2 | |


